X: 1
T: Haud Awa' Hame
M: 6/8
L: 1/8
R: jig
K: Dmaj
f |:cfg f2 e |faf ecA |cfe f2 e |cBA fgf |
cfg f2 e |faf ecA |ABA Bcd |[1cBA f2 f :|[2cBA f2 d||
|:cBA ABA |cBA Bcd |cBA ABc |cBc fgf |
cBA ABA |cBA Bcd |cfa fed |[1cBA f2 d :|[2cBA f3||
